X: 25451
T: Marcha Processional Du Corpus De Pontevedra
R: waltz
M: 3/4
K: Gmajor
|:Bc cB cd|AB BA Bc|GA AF Ae|dc BA GD|
Bc cB cd|AB BA Bc|GA AG AB|G4 D2:|
|:fg dB Gd|fg dB GB|dc cA FA|ed dB Gd|
fg dB Gd|fg dB GB|dc cA FA|G4 z2:|

